school/img/country/BB.svg

<svg width="13" height="12" viewBox="0 0 13 12" fill="none" xmlns="http://www.w3.org/2000/svg">
<rect width="13" height="12" rx="2" fill="white"/>
<mask id="mask0" mask-type="alpha" maskUnits="userSpaceOnUse" x="0" y="0" width="13" height="12">
<rect width="13" height="12" rx="2" fill="white"/>
</mask>
<g mask="url(#mask0)">
<rect width="13" height="12" fill="url(#paint0_linear)"/>
<rect x="6.19043" width="6.80953" height="12" fill="#08379D"/>
<path fill-rule="evenodd" clip-rule="evenodd" d="M0 12H4.33333V0H0V12Z" fill="#08379D"/>
<path fill-rule="evenodd" clip-rule="evenodd" d="M4.33325 12H8.66658V0H4.33325V12Z" fill="#FFCC50"/>
<path fill-rule="evenodd" clip-rule="evenodd" d="M6.21151 4.17183C6.33763 3.93216 6.68179 3.93498 6.80397 4.17669L6.9932 4.55103C7.05088 4.66514 6.96796 4.79997 6.8401 4.79997V4.79997C6.74014 4.79997 6.66135 4.8851 6.66906 4.98476L6.79388 6.59782C6.8027 6.7119 6.89785 6.79997 7.01228 6.79997V6.79997C7.07967 6.79997 7.1433 6.76896 7.18482 6.71588L7.35779 6.49476C7.40365 6.43613 7.42857 6.36383 7.42857 6.28939V5.70591C7.42857 5.63723 7.40576 5.57051 7.36374 5.5162V5.5162C7.23978 5.35601 7.30024 5.12192 7.48626 5.04179L7.50893 5.03202C7.74492 4.93037 8.00118 5.12627 7.96498 5.38067L7.7759 6.70928C7.76745 6.76864 7.74315 6.82463 7.70555 6.87133L7.18188 7.52191C7.14215 7.57127 7.0822 7.59997 7.01883 7.59997V7.59997C6.90323 7.59997 6.80952 7.69369 6.80952 7.80928V8.09045C6.80952 8.2614 6.67094 8.39997 6.5 8.39997V8.39997C6.32905 8.39997 6.19047 8.2614 6.19047 8.09045V7.80762C6.19047 7.69294 6.09751 7.59997 5.98282 7.59997V7.59997C5.91857 7.59997 5.85793 7.57022 5.8186 7.5194L5.31454 6.86799C5.28001 6.82338 5.25738 6.77073 5.24875 6.71498L5.04262 5.3831C5.00338 5.12951 5.25863 4.9319 5.4943 5.03342L5.51373 5.04179C5.69975 5.12192 5.76021 5.35601 5.63625 5.5162V5.5162C5.59423 5.57051 5.57143 5.63723 5.57143 5.70591V6.28939C5.57143 6.36383 5.59634 6.43613 5.64221 6.49476L5.81517 6.71588C5.85669 6.76896 5.92033 6.79997 5.98771 6.79997V6.79997C6.10214 6.79997 6.19729 6.7119 6.20612 6.59782L6.33109 4.98272C6.33872 4.88416 6.2608 4.79997 6.16194 4.79997V4.79997C6.03428 4.79997 5.95235 4.66428 6.01181 4.55131L6.21151 4.17183Z" fill="#262626"/>
</g>
<defs>
<linearGradient id="paint0_linear" x1="0" y1="0" x2="0" y2="12" gradientUnits="userSpaceOnUse">
<stop stop-color="#1132C7"/>
<stop offset="1" stop-color="#0522A5"/>
</linearGradient>
</defs>
</svg>

<svg width="13" height="12" fill="none" xmlns="http://www.w3.org/2000/svg"><rect width="13" height="12" rx="2" fill="#fff"/><mask id="a" maskUnits="userSpaceOnUse" x="0" y="0" width="13" height="12"><rect width="13" height="12" rx="2" fill="#fff"/></mask><g mask="url(#a)"><path fill="url(#paint0_linear)" d="M0 0h13v12H0z"/><path fill="#08379D" d="M6.19 0H13v12H6.19z"/><path fill-rule="evenodd" clip-rule="evenodd" d="M0 12h4.333V0H0v12z" fill="#08379D"/><path fill-rule="evenodd" clip-rule="evenodd" d="M4.333 12h4.334V0H4.333v12z" fill="#FFCC50"/><path fill-rule="evenodd" clip-rule="evenodd" d="M6.212 4.172a.333.333 0 01.592.005l.19.374a.172.172 0 01-.154.249.17.17 0 00-.17.185l.124 1.613a.219.219 0 00.39.118l.174-.221a.333.333 0 00.07-.206v-.583a.31.31 0 00-.064-.19.31.31 0 01.122-.474l.023-.01a.33.33 0 01.456.349l-.19 1.328a.333.333 0 01-.07.162l-.523.65a.21.21 0 01-.163.079.21.21 0 00-.21.21v.28a.31.31 0 11-.619 0v-.282a.208.208 0 00-.207-.208.208.208 0 01-.164-.08l-.504-.652a.333.333 0 01-.066-.153l-.206-1.332a.326.326 0 01.451-.35l.02.009a.31.31 0 01.122.474.31.31 0 00-.065.19v.583c0 .075.025.147.071.206l.173.22a.22.22 0 00.391-.118l.125-1.614a.17.17 0 00-.17-.183.17.17 0 01-.15-.249l.2-.38z" fill="#262626"/></g><defs><linearGradient id="paint0_linear" x1="0" y1="0" x2="0" y2="12" gradientUnits="userSpaceOnUse"><stop stop-color="#1132C7"/><stop offset="1" stop-color="#0522A5"/></linearGradient></defs></svg>
